static/assets/images/exchanges/beets.svg

<svg xmlns="http://www.w3.org/2000/svg" fill="none" viewBox="0 0 256 256"><path fill="#fff" d="M128 256c70.692 0 128-57.308 128-128S198.692 0 128 0 0 57.308 0 128s57.308 128 128 128"/><path fill="#1A1A1A" d="M128 58.88c-35.346 0-64 28.654-64 64v64h128v-64c0-35.346-28.654-64-64-64"/><path fill="#fff" d="M167.996 159.206v-.009c0-8.834-7.161-15.996-15.996-15.996h-.008c-8.834 0-15.996 7.162-15.996 15.996v.009c0 8.833 7.162 15.995 15.996 15.995H152c8.835 0 15.996-7.162 15.996-15.995m-47.993 0v-.009c0-8.834-7.161-15.996-15.996-15.996h-.008c-8.834 0-15.996 7.162-15.996 15.996v.009c0 8.833 7.162 15.995 15.996 15.995h.008c8.835 0 15.996-7.162 15.996-15.995"/><path fill="#05D690" d="M156.999 159.206v-.009a4.996 4.996 0 0 0-4.996-4.997h-.009a4.997 4.997 0 0 0-4.996 4.997v.009a4.996 4.996 0 0 0 4.996 4.996h.009a4.996 4.996 0 0 0 4.996-4.996"/><path fill="red" d="M109.003 159.206v-.009a4.996 4.996 0 0 0-4.996-4.997h-.009a4.997 4.997 0 0 0-4.997 4.997v.009a4.996 4.996 0 0 0 4.997 4.996h.009a4.996 4.996 0 0 0 4.996-4.996"/></svg>

<svg width="256" height="256" viewBox="0 0 256 256" fill="none" xmlns="http://www.w3.org/2000/svg">
<path d="M128 256C198.692 256 256 198.692 256 128C256 57.3078 198.692 0 128 0C57.3078 0 0 57.3078 0 128C0 198.692 57.3078 256 128 256Z" fill="white"/>
<path d="M128 58.88C92.6543 58.88 64 87.5344 64 122.88V186.88H192V122.88C192 87.5344 163.346 58.88 128 58.88Z" fill="#1A1A1A"/>
<path d="M167.996 159.206V159.197C167.996 150.363 160.835 143.201 152 143.201H151.992C143.158 143.201 135.996 150.363 135.996 159.197V159.206C135.996 168.039 143.158 175.201 151.992 175.201H152C160.835 175.201 167.996 168.039 167.996 159.206ZM120.003 159.206V159.197C120.003 150.363 112.842 143.201 104.007 143.201H103.999C95.1649 143.201 88.0031 150.363 88.0031 159.197V159.206C88.0031 168.039 95.1649 175.201 103.999 175.201H104.007C112.842 175.201 120.003 168.039 120.003 159.206Z" fill="white"/>
<path d="M156.999 159.206V159.197C156.999 157.872 156.473 156.601 155.536 155.664C154.599 154.727 153.328 154.2 152.003 154.2H151.994C150.669 154.2 149.398 154.727 148.461 155.664C147.524 156.601 146.998 157.872 146.998 159.197V159.206C146.998 160.531 147.524 161.802 148.461 162.739C149.398 163.676 150.669 164.202 151.994 164.202H152.003C153.328 164.202 154.599 163.676 155.536 162.739C156.473 161.802 156.999 160.531 156.999 159.206Z" fill="#05D690"/>
<path d="M109.003 159.206V159.197C109.003 157.872 108.477 156.601 107.54 155.664C106.603 154.727 105.332 154.2 104.007 154.2H103.998C102.673 154.2 101.402 154.727 100.465 155.664C99.5278 156.601 99.0014 157.872 99.0014 159.197V159.206C99.0014 160.531 99.5278 161.802 100.465 162.739C101.402 163.676 102.673 164.202 103.998 164.202H104.007C105.332 164.202 106.603 163.676 107.54 162.739C108.477 161.802 109.003 160.531 109.003 159.206Z" fill="#FF0000"/>
</svg>
